X: 19649
T: Jeanette's
R: waltz
M: 3/4
K: Dmajor
"D"(dcdedc)|d3af2|(dcdedc)|
"G"d3bg2|"D"(dcdedc)|d3af2|
"A7"(dcd)(gfe)|1 "D"d4(fe):|2 "D"d4(FG)||
"D"A3cA2|"Em"G6|"D"F3AF2|"A"E6|"G"G3AG2|
"D"(FGFE)D2|"A7"C3DE2|"D"F6|
"D"A3cA2|"Em"G6|"D"F3AF2|"A"E6|"G"G3AG2|
"D"(FGFEDC)|"A7"(CB,C)(GFE)|"D"D6||
"D"(AGAcAF)|"Em"G6|"D"(FEFAFD)|"A"E6|"G"(GFGBGE)|
"D"(FGFEDC)|"A7"(CB,CDEF)|"D"F6|
"D"(AGAcAF)|"Em"G6|"D"(FEFAFD)|"A"E6|"G"(GFGBGE)|
"D"(FGFEDC)|"A7"(CB,CGFE)|"D"D6||

